trunk/WorldWind/resources/milstd2525/icons/war/sugaexmc-------.svg

<?xml version="1.0" encoding="UTF-8" standalone="no"?>
<!--
Copyright (C) 2012 United States Government as represented by the Administrator of the
National Aeronautics and Space Administration.
All Rights Reserved.
-->

<!--
MIL-STD-2525 tactical symbol icon image. During icon composition this image is multiplied by the desired frame color 
(e.g. black), then drawn on top of the frame and fill.
-->

<svg
   xmlns:dc="http://purl.org/dc/elements/1.1/"
   xmlns:cc="http://creativecommons.org/ns#"
   xmlns:rdf="http://www.w3.org/1999/02/22-rdf-syntax-ns#"
   xmlns:svg="http://www.w3.org/2000/svg"
   xmlns="http://www.w3.org/2000/svg"
   xmlns:sodipodi="http://sodipodi.sourceforge.net/DTD/sodipodi-0.dtd"
   xmlns:inkscape="http://www.inkscape.org/namespaces/inkscape"
   height="400px"
   viewBox="0 0 400 400"
   width="400px"
   id="svg2"
   version="1.1"
   inkscape:version="0.48.2 r9819"
   sodipodi:docname="sugaexmc-------.svg">
  <metadata
     id="metadata12">
    <rdf:RDF>
      <cc:Work
         rdf:about="">
        <dc:format>image/svg+xml</dc:format>
        <dc:type
           rdf:resource="http://purl.org/dc/dcmitype/StillImage" />
      </cc:Work>
    </rdf:RDF>
  </metadata>
  <defs
     id="defs10" />
  <sodipodi:namedview
     pagecolor="#ffffff"
     bordercolor="#666666"
     borderopacity="1"
     objecttolerance="10"
     gridtolerance="10"
     guidetolerance="10"
     inkscape:pageopacity="0"
     inkscape:pageshadow="2"
     inkscape:window-width="640"
     inkscape:window-height="480"
     id="namedview8"
     showgrid="false"
     inkscape:zoom="0.59"
     inkscape:cx="200"
     inkscape:cy="200"
     inkscape:window-x="313"
     inkscape:window-y="97"
     inkscape:window-maximized="0"
     inkscape:current-layer="svg2" />
  <g
     transform="matrix(5,0,0,5,124,132)"
     id="g4"
     style="stroke:#000000;stroke-width:1;stroke-miterlimit:4;stroke-opacity:1;stroke-dasharray:2, 1;stroke-dashoffset:0">
    <path
       inkscape:connector-curvature="0"
       d="m 24.264,7.203 c 2.111,2.594 3.168,5.381 3.168,8.357 0,3.363 -1.213,6.172 -3.637,8.43 -2.424,2.258 -5.244,3.385 -8.459,3.385 -3.313,0 -6.158,-1.15 -8.533,-3.451 C 4.426,21.623 3.239,18.77 3.239,15.363 3.239,12.439 4.294,9.754 6.407,7.308 4.965,6.158 2.83,3.881 0,0.477 c 1.008,0.672 3.455,2.641 7.344,5.904 2.303,-2.064 4.943,-3.098 7.92,-3.098 -0.098,0 0.383,0.072 1.439,0.217 2.398,0.289 4.584,1.225 6.553,2.809 L 30.455,0 c -2.256,3.17 -4.32,5.57 -6.191,7.203 z"
       style="fill:#ffffff;stroke:#000000;stroke-width:1;stroke-miterlimit:4;stroke-opacity:1;stroke-dasharray:2, 1;stroke-dashoffset:0"
       id="path6" />
  </g>
</svg>

<?xml version="1.0"?>
<!--
Copyright (C) 2012 United States Government as represented by the Administrator of the
National Aeronautics and Space Administration.
All Rights Reserved.
-->

<!DOCTYPE svg PUBLIC "-//W3C//DTD SVG 1.1//EN" "http://www.w3.org/Graphics/SVG/1.1/DTD/svg11.dtd" >
<!--
MIL-STD-2525 tactical symbol icon image. During icon composition this image is multiplied by the desired frame color 
(e.g. black), then drawn on top of the frame and fill.
-->
<svg xmlns:xlink="http://www.w3.org/1999/xlink" height="400px" viewBox="0 0 400 400" width="400px"><g transform="translate(124 132) scale(5 5)"><path d="M24.264 7.203 C26.375 9.797 27.432 12.584 27.432 15.56 C27.432 18.923 26.219 21.732     23.795 23.99 C21.371 26.248 18.551 27.375 15.336 27.375 C12.023 27.375 9.178     26.225 6.803 23.924 C4.426 21.623 3.239 18.77 3.239 15.363 C3.239 12.439     4.294 9.754 6.407 7.308 C4.965 6.158 2.83 3.881 0 0.477 C1.008 1.149 3.455     3.118 7.344 6.381 C9.647 4.317 12.287 3.283 15.264 3.283 C15.166 3.283 15.647     3.355 16.703 3.5 C19.101 3.789 21.287 4.725 23.256 6.309 L30.455 0 C28.199     3.17 26.135 5.57 24.264 7.203 z" style="fill:rgb(255,255,255)"/></g></svg>
